public/images/benefits/ellipse.svg

<svg width="1076" height="629" viewBox="0 0 1076 629" fill="none" xmlns="http://www.w3.org/2000/svg">
<path d="M1075.12 400.819C1075.51 405.233 1075.77 409.618 1075.9 413.968L1074.9 413.999C1074.97 416.175 1075 418.342 1075 420.5C1075 422.724 1074.96 424.924 1074.9 427.102L1075.89 427.134C1075.75 431.562 1075.47 435.896 1075.04 440.137L1074.05 440.037C1073.61 444.414 1073.02 448.69 1072.28 452.869L1073.26 453.043C1072.49 457.406 1071.56 461.664 1070.47 465.819L1069.51 465.566C1068.39 469.812 1067.12 473.95 1065.68 477.983L1066.62 478.319C1065.14 482.46 1063.49 486.491 1061.68 490.415L1060.77 489.995C1058.95 493.94 1056.96 497.775 1054.8 501.504L1055.66 502.005C1053.48 505.775 1051.13 509.437 1048.61 512.994L1047.8 512.417C1045.31 515.935 1042.66 519.35 1039.85 522.665L1040.62 523.312C1037.82 526.611 1034.87 529.81 1031.77 532.914L1031.06 532.207C1028.03 535.238 1024.85 538.178 1021.53 541.029L1022.18 541.788C1018.91 544.593 1015.5 547.312 1011.96 549.947L1011.36 549.145C1007.93 551.703 1004.36 554.182 1000.67 556.584L1001.21 557.422C997.612 559.764 993.895 562.034 990.062 564.232L989.564 563.364C985.864 565.486 982.055 567.542 978.14 569.534L978.593 570.425C974.771 572.37 970.848 574.253 966.827 576.077L966.414 575.166C962.51 576.937 958.513 578.651 954.425 580.312L954.801 581.238C950.802 582.862 946.717 584.434 942.546 585.955L942.203 585.016C938.195 586.478 934.108 587.893 929.943 589.263L930.256 590.213C926.176 591.555 922.023 592.854 917.798 594.11L917.513 593.151C913.382 594.379 909.182 595.567 904.914 596.715L905.174 597.681C901.024 598.798 896.81 599.877 892.533 600.921L892.296 599.949C888.128 600.967 883.899 601.95 879.613 602.899L879.829 603.876C875.603 604.812 871.32 605.716 866.982 606.589L866.785 605.608C862.578 606.454 858.32 607.271 854.01 608.059L854.19 609.043C849.948 609.819 845.656 610.567 841.316 611.288L841.152 610.301C836.884 611.011 832.569 611.694 828.207 612.352L828.356 613.341C824.107 613.982 819.814 614.599 815.478 615.193L815.343 614.202C811.049 614.79 806.715 615.356 802.339 615.899L802.462 616.892C798.189 617.422 793.877 617.932 789.527 618.421L789.415 617.427C785.118 617.911 780.783 618.374 776.412 618.818L776.513 619.813C772.211 620.25 767.874 620.669 763.502 621.069L763.411 620.074C759.111 620.468 754.777 620.844 750.411 621.204L750.493 622.2C746.171 622.556 741.817 622.896 737.432 623.22L737.358 622.222C733.056 622.54 728.723 622.842 724.361 623.129L724.427 624.127C720.091 624.413 715.727 624.684 711.334 624.94L711.275 623.942C706.97 624.194 702.638 624.432 698.279 624.657L698.33 625.656C693.986 625.88 689.616 626.091 685.22 626.29L685.175 625.291C680.866 625.486 676.532 625.669 672.174 625.84L672.214 626.839C667.865 627.01 663.493 627.17 659.097 627.318L659.064 626.319C654.75 626.465 650.414 626.6 646.056 626.725L646.084 627.724C641.735 627.849 637.363 627.963 632.97 628.068L632.947 627.068C628.627 627.171 624.288 627.265 619.927 627.35L619.947 628.349C615.598 628.434 611.229 628.509 606.841 628.576L606.826 627.576C602.5 627.643 598.155 627.7 593.792 627.75L593.803 628.75C589.457 628.8 585.092 628.841 580.71 628.876L580.702 627.876C576.369 627.91 572.018 627.937 567.651 627.956L567.655 628.956C563.312 628.976 558.953 628.989 554.577 628.995L554.575 627.995C552.388 627.998 550.196 628 548 628C545.758 628 543.52 627.992 541.285 627.976L541.277 628.976C536.802 628.944 532.34 628.881 527.891 628.786L527.913 627.786C523.447 627.691 518.995 627.565 514.557 627.407L514.522 628.406C510.046 628.247 505.585 628.056 501.139 627.834L501.189 626.835C496.729 626.612 492.286 626.358 487.858 626.072L487.793 627.07C483.321 626.781 478.865 626.461 474.426 626.109L474.505 625.113C470.055 624.76 465.622 624.376 461.207 623.961L461.114 624.956C456.649 624.537 452.203 624.085 447.776 623.602L447.884 622.608C443.447 622.124 439.029 621.608 434.63 621.061L434.507 622.054C430.056 621.5 425.624 620.915 421.213 620.298L421.352 619.308C416.931 618.69 412.531 618.04 408.152 617.359L407.998 618.347C403.565 617.657 399.154 616.936 394.765 616.183L394.934 615.197C390.533 614.442 386.154 613.655 381.8 612.837L381.615 613.82C377.206 612.991 372.82 612.13 368.46 611.238L368.66 610.259C364.283 609.363 359.93 608.435 355.604 607.476L355.388 608.453C351.008 607.482 346.656 606.479 342.33 605.444L342.563 604.472C338.213 603.431 333.891 602.359 329.598 601.255L329.349 602.223C325.008 601.107 320.695 599.958 316.413 598.778L316.679 597.814C312.362 596.624 308.075 595.402 303.821 594.148L303.538 595.107C299.243 593.841 294.979 592.542 290.749 591.212L291.049 590.258C286.77 588.913 282.526 587.535 278.316 586.125L277.998 587.074C273.758 585.654 269.554 584.201 265.385 582.717L265.72 581.775C261.487 580.268 257.291 578.728 253.134 577.156L252.78 578.091C248.598 576.509 244.455 574.895 240.352 573.249L240.725 572.321C236.553 570.647 232.423 568.941 228.335 567.202L227.944 568.122C223.819 566.367 219.737 564.579 215.699 562.758L216.11 561.847C212.025 560.005 207.985 558.13 203.991 556.223L203.56 557.125C199.503 555.187 195.493 553.216 191.533 551.211L191.984 550.319C188.001 548.303 184.068 546.255 180.185 544.173L179.713 545.055C175.737 542.923 171.814 540.758 167.946 538.559L168.44 537.69C164.546 535.477 160.708 533.229 156.927 530.95L156.411 531.806C152.565 529.488 148.778 527.135 145.051 524.749L145.591 523.907C141.804 521.483 138.08 519.025 134.419 516.534L133.857 517.36C130.149 514.837 126.507 512.279 122.931 509.689L123.518 508.879C119.881 506.244 116.314 503.574 112.817 500.871L112.206 501.662C108.642 498.908 105.152 496.118 101.736 493.294L102.373 492.524C98.9231 489.672 95.5498 486.785 92.2553 483.866L91.5921 484.614C88.2233 481.629 84.9364 478.608 81.7332 475.554L82.4233 474.83C79.1702 471.728 76.004 468.592 72.9266 465.422L72.2091 466.119C69.0787 462.894 66.0396 459.635 63.094 456.341L63.8394 455.675C60.8564 452.34 57.9699 448.971 55.182 445.569L54.4085 446.203C51.5494 442.714 48.7933 439.19 46.1425 435.633L46.9444 435.035C44.2655 431.44 41.6949 427.811 39.235 424.15L38.405 424.707C35.9009 420.98 33.5108 417.219 31.2372 413.425L32.095 412.911C29.7988 409.08 27.6222 405.216 25.5677 401.32L24.6832 401.787C22.5851 397.809 20.6137 393.798 18.7715 389.755L19.6815 389.341C17.8292 385.276 16.1085 381.18 14.5221 377.055L13.5887 377.414C11.9817 373.234 10.5118 369.024 9.18182 364.785L10.136 364.486C8.80412 360.241 7.61346 355.967 6.56692 351.666L5.59526 351.902C4.5394 347.563 3.62943 343.196 2.86838 338.803L3.8537 338.632C3.09668 334.262 2.48778 329.866 2.02999 325.447L1.03531 325.55C0.577179 321.127 0.269596 316.68 0.115548 312.21L1.11495 312.176C1.03844 309.956 1 307.731 1 305.5C1 303.292 1.03765 301.093 1.11259 298.902L0.113173 298.868C0.264265 294.449 0.566164 290.064 1.01596 285.714L2.01066 285.816C2.46218 281.449 3.06352 277.116 3.81172 272.819L2.82654 272.647C3.58303 268.303 4.48885 263.994 5.54097 259.724L6.51194 259.963C7.55839 255.715 8.75038 251.505 10.0849 247.332L9.13246 247.028C10.4697 242.847 11.9492 238.705 13.5681 234.603L14.4983 234.97C16.0999 230.911 17.8387 226.891 19.7119 222.911L18.8071 222.485C20.674 218.518 22.6735 214.591 24.8028 210.705L25.6798 211.186C27.7689 207.373 29.9837 203.599 32.3214 199.865L31.4739 199.335C33.7897 195.636 36.2255 191.977 38.7785 188.359L39.5956 188.936C42.1027 185.383 44.7237 181.869 47.4561 178.395L46.6701 177.777C49.3736 174.339 52.1854 170.942 55.103 167.584L55.8578 168.24C58.7067 164.962 61.6572 161.722 64.7071 158.522L63.9832 157.832C66.9865 154.68 70.0855 151.567 73.278 148.493L73.9717 149.213C77.106 146.195 80.3311 143.214 83.6448 140.272L82.9809 139.524C86.2518 136.62 89.6087 133.753 93.0494 130.925L93.6844 131.697C97.0323 128.945 100.46 126.23 103.966 123.551L103.359 122.756C106.826 120.107 110.368 117.494 113.985 114.918L114.565 115.733C118.124 113.198 121.756 110.699 125.458 108.236L124.904 107.403C128.522 104.996 132.206 102.624 135.957 100.288L136.485 101.136C140.184 98.8316 143.947 96.5613 147.772 94.3259L147.268 93.4625C151.046 91.2547 154.885 89.081 158.783 86.942L159.264 87.8187C163.072 85.7289 166.937 83.6723 170.858 81.6493L170.399 80.7606C174.291 78.7525 178.237 76.7775 182.236 74.8363L182.673 75.7359C186.591 73.8342 190.559 71.9648 194.578 70.1283L194.163 69.2188C198.135 67.4033 202.156 65.62 206.225 63.8693L206.62 64.7878C210.64 63.0578 214.707 61.3596 218.819 59.6937L218.443 58.7668C222.482 57.1306 226.563 55.5256 230.688 53.952L231.044 54.8863C235.138 53.3242 239.275 51.7933 243.452 50.2938L243.114 49.3526C247.218 47.8795 251.361 46.4368 255.542 45.0249L255.862 45.9723C260.008 44.5725 264.191 43.2029 268.411 41.8641L268.109 40.9109C272.277 39.5886 276.48 38.2963 280.719 37.0343L281.004 37.9927C285.193 36.7454 289.416 35.5278 293.672 34.3402L293.403 33.377C297.624 32.1992 301.877 31.0509 306.162 29.9324L306.415 30.9C310.64 29.7971 314.896 28.7232 319.182 27.6787L318.945 26.7071C323.209 25.668 327.503 24.6579 331.825 23.6772L332.047 24.6524C336.303 23.6866 340.587 22.7494 344.899 21.841L344.693 20.8625C348.992 19.9567 353.318 19.0796 357.669 18.2314L357.861 19.213C362.144 18.3782 366.453 17.5716 370.786 16.7933L370.609 15.809C374.936 15.0319 379.287 14.283 383.662 13.5627L383.824 14.5494C388.131 13.8405 392.46 13.1592 396.811 12.5059L396.663 11.517C401.011 10.8642 405.382 10.2394 409.774 9.64273L409.909 10.6336C414.235 10.046 418.582 9.48573 422.949 8.95317L422.828 7.96053C427.193 7.42824 431.578 6.92358 435.982 6.44684L436.09 7.44103C440.433 6.97094 444.795 6.528 449.175 6.1125L449.08 5.11697C453.457 4.70178 457.852 4.31396 462.264 3.95376L462.345 4.95044C466.703 4.59474 471.077 4.266 475.468 3.96447L475.399 2.96682C479.784 2.66573 484.184 2.39174 488.601 2.14512L488.656 3.14356C493.025 2.8996 497.41 2.68242 501.809 2.4923L501.766 1.49323C506.154 1.30356 510.557 1.14078 514.974 1.00512L515.005 2.00465C519.383 1.87019 523.775 1.76241 528.18 1.68153L528.162 0.681702C532.551 0.601119 536.953 0.547224 541.368 0.520247L541.374 1.52023C543.58 1.50675 545.788 1.5 548 1.5C550.206 1.5 552.408 1.51284 554.606 1.53841L554.617 0.538481C559.02 0.589707 563.406 0.691919 567.775 0.844169L567.74 1.84356C572.125 1.99636 576.492 2.19964 580.841 2.45245L580.899 1.45413C585.298 1.70978 589.678 2.016 594.039 2.37177L593.958 3.36846C598.327 3.72484 602.677 4.13104 607.008 4.58606L607.112 3.59154C611.495 4.05205 615.859 4.56249 620.202 5.12181L620.074 6.11362C624.419 6.67318 628.744 7.28175 633.048 7.9383L633.199 6.94974C637.557 7.61443 641.893 8.3282 646.207 9.09L646.034 10.0748C650.346 10.8363 654.638 11.6459 658.906 12.5024L659.103 11.522C663.425 12.3891 667.724 13.3044 671.999 14.2666L671.78 15.2422C676.052 16.2036 680.301 17.2121 684.526 18.2664L684.768 17.2961C689.044 18.3632 693.296 19.4772 697.523 20.6369L697.258 21.6013C701.481 22.76 705.679 23.9644 709.852 25.2135L710.139 24.2555C714.36 25.5192 718.556 26.8285 722.724 28.1821L722.415 29.1332C726.581 30.4859 730.72 31.8829 734.832 33.3232L735.162 32.3794C739.32 33.8359 743.45 35.3364 747.552 36.8799L747.2 37.8158C751.3 39.3586 755.372 40.9444 759.414 42.5719L759.788 41.6442C763.873 43.2891 767.93 44.9765 771.956 46.7052L771.561 47.6241C775.588 49.353 779.585 51.1234 783.55 52.9338L783.965 52.0241C787.971 53.8528 791.945 55.7222 795.887 57.6312L795.451 58.5313C799.397 60.4422 803.311 62.3927 807.191 64.3816L807.648 63.4917C811.565 65.4993 815.449 67.5459 819.298 69.6302L818.822 70.5096C822.68 72.5981 826.503 74.7246 830.292 76.8876L830.787 76.0192C834.608 78.2007 838.394 80.4193 842.143 82.6737L841.628 83.5307C845.39 85.7928 849.116 88.091 852.804 90.4238L853.339 89.5787C857.055 91.929 860.734 94.3145 864.374 96.7336L863.821 97.5665C867.481 99.9983 871.101 102.464 874.683 104.963L875.255 104.143C878.858 106.657 882.422 109.204 885.945 111.783L885.354 112.589C888.904 115.188 892.412 117.818 895.878 120.478L896.487 119.685C899.969 122.358 903.409 125.061 906.806 127.794L906.179 128.573C909.611 131.334 912.998 134.125 916.341 136.944L916.986 136.18C920.344 139.012 923.656 141.872 926.923 144.759L926.261 145.508C929.56 148.424 932.812 151.368 936.016 154.337L936.696 153.603C939.923 156.594 943.102 159.611 946.232 162.652L945.535 163.369C948.688 166.433 951.791 169.521 954.842 172.633L955.556 171.932C958.644 175.08 961.679 178.251 964.661 181.445L963.931 182.127C966.925 185.333 969.866 188.561 972.752 191.809L973.5 191.145C976.436 194.448 979.316 197.772 982.138 201.116L981.374 201.761C984.207 205.116 986.982 208.49 989.698 211.881L990.479 211.255C993.239 214.701 995.94 218.165 998.579 221.644L997.782 222.248C1000.44 225.757 1003.04 229.281 1005.58 232.819L1006.39 232.237C1008.95 235.813 1011.45 239.403 1013.88 243.006L1013.05 243.565C1015.53 247.227 1017.93 250.9 1020.27 254.584L1021.11 254.049C1023.47 257.772 1025.76 261.506 1027.98 265.249L1027.12 265.758C1029.36 269.546 1031.54 273.343 1033.63 277.144L1034.51 276.661C1036.65 280.537 1038.71 284.42 1040.69 288.305L1039.8 288.76C1041.8 292.678 1043.72 296.599 1045.55 300.521L1046.46 300.097C1048.33 304.102 1050.12 308.107 1051.83 312.112L1050.91 312.503C1052.64 316.568 1054.28 320.631 1055.83 324.688L1056.77 324.331C1058.34 328.455 1059.83 332.575 1061.22 336.686L1060.27 337.006C1061.68 341.181 1062.99 345.347 1064.21 349.501L1065.17 349.221C1066.41 353.479 1067.55 357.726 1068.59 361.958L1067.61 362.195C1068.66 366.478 1069.6 370.745 1070.43 374.993L1071.41 374.801C1072.25 379.135 1072.99 383.448 1073.6 387.738L1072.61 387.88C1073.24 392.249 1073.74 396.592 1074.12 400.907L1075.12 400.819Z" stroke="url(#paint0_linear_264_416)" stroke-opacity="0.6" stroke-width="2" stroke-dasharray="13.14 13.14"/>
<defs>
<linearGradient id="paint0_linear_264_416" x1="538" y1="0.5" x2="538" y2="629" gradientUnits="userSpaceOnUse">
<stop offset="0.115" stop-color="#76F4DC"/>
<stop offset="0.57" stop-color="#63C2EE"/>
<stop offset="0.865" stop-color="#5323E5"/>
</linearGradient>
</defs>
</svg>

<svg xmlns="http://www.w3.org/2000/svg" width="1076" height="629" fill="none"><path stroke="url(#a)" stroke-dasharray="13.14 13.14" stroke-opacity=".6" stroke-width="2" d="M1075.12 400.819q.585 6.623.78 13.149l-1 .031c.07 2.176.1 4.343.1 6.501 0 2.224-.04 4.424-.1 6.602l.99.032c-.14 4.428-.42 8.762-.85 13.003l-.99-.1q-.66 6.565-1.77 12.832l.98.174q-1.155 6.544-2.79 12.776l-.96-.253a153 153 0 0 1-3.83 12.417l.94.336a147 147 0 0 1-4.94 12.096l-.91-.42q-2.73 5.916-5.97 11.509l.86.501q-3.27 5.654-7.05 10.989l-.81-.577a149 149 0 0 1-7.95 10.248l.77.647q-4.2 4.947-8.85 9.602l-.71-.707a171 171 0 0 1-9.53 8.822l.65.759a189 189 0 0 1-10.22 8.159l-.6-.802c-3.43 2.558-7 5.037-10.69 7.439l.54.838a232 232 0 0 1-11.148 6.81l-.498-.868a260 260 0 0 1-11.424 6.17l.453.891a291 291 0 0 1-11.766 5.652l-.413-.911a327 327 0 0 1-11.989 5.146l.376.926a364 364 0 0 1-12.255 4.717l-.343-.939a406 406 0 0 1-12.26 4.247l.313.95a453 453 0 0 1-12.458 3.897l-.285-.959a500 500 0 0 1-12.599 3.564l.26.966a555 555 0 0 1-12.641 3.24l-.237-.972a602 602 0 0 1-12.683 2.95l.216.977q-6.34 1.404-12.847 2.713l-.197-.981a739 739 0 0 1-12.775 2.451l.18.984a802 802 0 0 1-12.874 2.245l-.164-.987q-6.402 1.065-12.945 2.051l.149.989a958 958 0 0 1-12.878 1.852l-.135-.991q-6.44.882-13.004 1.697l.123.993q-6.41.795-12.935 1.529l-.112-.994q-6.446.726-13.003 1.391l.101.995q-6.453.656-13.011 1.256l-.091-.995q-6.45.59-13 1.13l.082.996q-6.483.534-13.061 1.02l-.074-.998q-6.454.477-12.997.907l.066.998q-6.504.429-13.093.813l-.059-.998q-6.458.378-12.996.715l.051.999q-6.516.336-13.11.634l-.045-.999q-6.464.293-13.001.549l.04.999q-6.523.257-13.117.479l-.033-.999q-6.471.219-13.008.406l.028.999q-6.524.187-13.114.344l-.023-1q-6.48.155-13.02.282l.02.999q-6.524.127-13.106.227l-.015-1q-6.49.1-13.034.174l.011 1q-6.52.074-13.093.126l-.008-1q-6.5.051-13.051.08l.004 1q-6.514.03-13.078.039l-.002-1q-3.28.005-6.575.005-3.363 0-6.715-.024l-.008 1a943 943 0 0 1-13.386-.19l.022-1a933 933 0 0 1-13.356-.379l-.035.999q-6.714-.239-13.383-.572l.05-.999q-6.69-.334-13.331-.763l-.065.998a918 918 0 0 1-13.367-.961l.079-.996a917 917 0 0 1-13.298-1.152l-.093.995a888 888 0 0 1-13.338-1.354l.108-.994q-6.656-.726-13.254-1.547l-.123.993a885 885 0 0 1-13.294-1.756l.139-.99a867 867 0 0 1-13.2-1.949l-.154.988a865 865 0 0 1-13.233-2.164l.169-.986a844 844 0 0 1-13.134-2.36l-.185.983a841 841 0 0 1-13.155-2.582l.2-.979a822 822 0 0 1-13.056-2.783l-.216.977a804 804 0 0 1-13.058-3.009l.233-.972a794 794 0 0 1-12.965-3.217l-.249.968a776 776 0 0 1-12.936-3.445l.266-.964a756 756 0 0 1-12.858-3.666l-.283.959a743 743 0 0 1-12.789-3.895l.3-.954a719 719 0 0 1-12.733-4.133l-.318.949a709 709 0 0 1-12.613-4.357l.335-.942a687 687 0 0 1-12.586-4.619l-.354.935a672 672 0 0 1-12.428-4.842l.373-.928a650 650 0 0 1-12.39-5.119l-.391.92a625 625 0 0 1-12.245-5.364l.411-.911a612 612 0 0 1-12.119-5.624l-.431.902a582 582 0 0 1-12.027-5.914l.451-.892a563 563 0 0 1-11.799-6.146l-.472.882a543 543 0 0 1-11.767-6.496l.494-.869a520 520 0 0 1-11.513-6.74l-.516.856a495 495 0 0 1-11.36-7.057l.54-.842a477 477 0 0 1-11.172-7.373l-.562.826a455 455 0 0 1-10.926-7.671l.587-.81a431 431 0 0 1-10.701-8.008l-.611.791a407 407 0 0 1-10.47-8.368l.637-.77a389 389 0 0 1-10.118-8.658l-.663.748a367 367 0 0 1-9.859-9.06l.69-.724a346 346 0 0 1-9.496-9.408l-.718.697a327 327 0 0 1-9.115-9.778l.745-.666a308 308 0 0 1-8.657-10.106l-.774.634a291 291 0 0 1-8.266-10.57l.802-.598a274 274 0 0 1-7.709-10.885l-.83.557a258 258 0 0 1-7.168-11.282l.858-.514a243 243 0 0 1-6.527-11.591l-.885.467a232 232 0 0 1-5.911-12.032l.91-.414a221 221 0 0 1-5.16-12.286l-.933.359a212 212 0 0 1-4.407-12.629l.954-.299a204 204 0 0 1-3.57-12.82l-.97.236a199 199 0 0 1-2.728-13.099l.986-.171a195 195 0 0 1-1.824-13.185l-.995.103q-.687-6.635-.92-13.34l1-.034a194 194 0 0 1-.002-13.274l-1-.034q.227-6.629.903-13.154l.995.102q.678-6.551 1.8-12.997l-.984-.172a191 191 0 0 1 2.714-12.923l.97.239a193 193 0 0 1 3.574-12.631l-.953-.304a199 199 0 0 1 4.436-12.425l.93.367a205 205 0 0 1 5.214-12.059l-.905-.426a215 215 0 0 1 5.996-11.78l.877.481a226 226 0 0 1 6.641-11.321l-.847-.53a239 239 0 0 1 7.305-10.976l.817.577a253 253 0 0 1 7.86-10.541l-.786-.618a270 270 0 0 1 8.433-10.193l.755.656q4.274-4.917 8.85-9.718l-.725-.69a306 306 0 0 1 9.295-9.339l.694.72a326 326 0 0 1 9.673-8.941l-.664-.748a348 348 0 0 1 10.068-8.599l.635.772a369 369 0 0 1 10.282-8.146l-.607-.795a393 393 0 0 1 10.626-7.838l.58.815a415 415 0 0 1 10.893-7.497l-.554-.833a437 437 0 0 1 11.053-7.115l.528.848a467 467 0 0 1 11.287-6.81l-.504-.863a491 491 0 0 1 11.515-6.521l.481.877a513 513 0 0 1 11.594-6.17l-.459-.888a542 542 0 0 1 11.837-5.925l.437.9a566 566 0 0 1 11.905-5.608l-.415-.91a589 589 0 0 1 12.062-5.349l.395.919a616 616 0 0 1 12.199-5.094l-.376-.927a643 643 0 0 1 12.245-4.815l.356.934a667 667 0 0 1 12.408-4.592l-.338-.941a695 695 0 0 1 12.428-4.328l.32.947q6.219-2.1 12.549-4.108l-.302-.953a739 739 0 0 1 12.61-3.877l.285.959a763 763 0 0 1 12.668-3.653l-.269-.963a788 788 0 0 1 12.759-3.445l.253.968a808 808 0 0 1 12.767-3.221l-.237-.972q6.397-1.56 12.88-3.03l.222.975q6.384-1.448 12.852-2.811l-.206-.979a875 875 0 0 1 12.976-2.63l.192.981a890 890 0 0 1 12.925-2.42l-.177-.984a912 912 0 0 1 13.053-2.246l.162.986q6.46-1.063 12.987-2.043l-.148-.989a946 946 0 0 1 13.111-1.874l.135.99a963 963 0 0 1 13.04-1.68l-.121-.992a980 980 0 0 1 13.154-1.514l.108.994q6.515-.705 13.085-1.328l-.095-.996q6.566-.623 13.184-1.163l.081.996q6.537-.533 13.123-.986l-.069-.997q6.577-.452 13.202-.822l.055.999q6.554-.367 13.153-.652l-.043-.999q6.582-.284 13.208-.488l.031 1q6.567-.203 13.175-.323l-.018-1q6.584-.12 13.206-.162l.006 1q3.309-.02 6.626-.02 3.309 0 6.606.038l.011-1q6.604.078 13.158.306l-.035 1q6.577.229 13.101.608l.058-.998q6.598.384 13.14.918l-.081.996q6.554.535 13.05 1.218l.104-.994q6.575.69 13.09 1.53l-.128.992q6.518.84 12.974 1.824l.151-.988q6.537.997 13.008 2.14l-.173.985q6.469 1.141 12.872 2.427l.197-.98q6.483 1.3 12.896 2.745l-.219.975q6.408 1.443 12.746 3.024l.242-.97a568 568 0 0 1 12.755 3.34l-.265.965a568 568 0 0 1 12.594 3.613l.287-.958a570 570 0 0 1 12.585 3.926l-.309.951a571 571 0 0 1 12.417 4.19l.33-.944a574 574 0 0 1 12.39 4.5l-.352.937q6.15 2.314 12.214 4.756l.374-.928a579 579 0 0 1 12.168 5.061l-.395.92a575 575 0 0 1 11.989 5.309l.415-.91a579 579 0 0 1 11.922 5.607l-.436.9a578 578 0 0 1 11.74 5.85l.457-.89a581 581 0 0 1 11.65 6.14l-.476.879a582 582 0 0 1 11.47 6.378l.495-.869q5.732 3.273 11.356 6.655l-.515.857a580 580 0 0 1 11.176 6.893l.535-.845a582 582 0 0 1 11.035 7.155l-.553.833q5.49 3.647 10.862 7.396l.572-.82a579 579 0 0 1 10.69 7.64l-.591.806a581 581 0 0 1 10.524 7.889l.609-.793a576 576 0 0 1 10.319 8.109l-.627.779a570 570 0 0 1 10.162 8.371l.645-.764a568 568 0 0 1 9.937 8.579l-.662.749a560 560 0 0 1 9.755 8.829l.68-.734a559 559 0 0 1 9.536 9.049l-.697.717a542 542 0 0 1 9.307 9.264l.714-.701a533 533 0 0 1 9.105 9.513l-.73.682a529 529 0 0 1 8.821 9.682l.748-.664a513 513 0 0 1 8.638 9.971l-.764.645a506 506 0 0 1 8.324 10.12l.781-.626a500 500 0 0 1 8.1 10.389l-.797.604a513 513 0 0 1 7.798 10.571l.81-.582c2.56 3.576 5.06 7.166 7.49 10.769l-.83.559a448 448 0 0 1 7.22 11.019l.84-.535q3.54 5.585 6.87 11.2l-.86.509c2.24 3.788 4.42 7.585 6.51 11.386l.88-.483q3.21 5.815 6.18 11.644l-.89.455c2 3.918 3.92 7.839 5.75 11.761l.91-.424q2.805 6.007 5.37 12.015l-.92.391q2.595 6.099 4.92 12.185l.94-.357c1.57 4.124 3.06 8.244 4.45 12.355l-.95.32c1.41 4.175 2.72 8.341 3.94 12.495l.96-.28q1.86 6.388 3.42 12.737l-.98.237q1.575 6.425 2.82 12.798l.98-.192c.84 4.334 1.58 8.647 2.19 12.937l-.99.142c.63 4.369 1.13 8.712 1.51 13.027z"/><defs><linearGradient id="a" x1="538" x2="538" y1=".5" y2="629" gradientUnits="userSpaceOnUse"><stop offset=".115" stop-color="#76F4DC"/><stop offset=".57" stop-color="#63C2EE"/><stop offset=".865" stop-color="#5323E5"/></linearGradient></defs></svg>
